src/lib/packages/icons/src/assets/line/location-arrow-square.svg

<svg width="24" height="24" viewBox="0 0 24 24" fill="none" xmlns="http://www.w3.org/2000/svg">
<path d="M15.413 6.875L7.48999 10.604C6.99999 10.834 6.71103 11.3321 6.75403 11.8711C6.79803 12.4111 7.16202 12.8559 7.68402 13.0049L9.591 13.55C10.01 13.67 10.33 13.99 10.45 14.408L10.995 16.3169C11.144 16.8369 11.59 17.2011 12.129 17.2451C12.165 17.2481 12.2 17.249 12.235 17.249C12.733 17.249 13.181 16.967 13.396 16.51L17.125 8.58496C17.358 8.08796 17.259 7.51595 16.87 7.12695C16.482 6.74095 15.912 6.641 15.413 6.875ZM12.281 15.3589L11.892 13.9971C11.629 13.0771 10.923 12.3709 10.002 12.1079L8.64203 11.719L15.516 8.48389L12.281 15.3589ZM17.625 2.25H6.375C3.715 2.25 2.25 3.715 2.25 6.375V17.625C2.25 20.285 3.715 21.75 6.375 21.75H17.625C20.285 21.75 21.75 20.285 21.75 17.625V6.375C21.75 3.715 20.285 2.25 17.625 2.25ZM20.25 17.625C20.25 19.465 19.465 20.25 17.625 20.25H6.375C4.535 20.25 3.75 19.465 3.75 17.625V6.375C3.75 4.535 4.535 3.75 6.375 3.75H17.625C19.465 3.75 20.25 4.535 20.25 6.375V17.625Z" fill="currentColor"/>
</svg>

<svg xmlns="http://www.w3.org/2000/svg" width="24" height="24" fill="none"><path fill="currentColor" d="M15.413 6.875 7.49 10.604c-.49.23-.779.728-.736 1.267.044.54.408.985.93 1.134l1.907.545c.419.12.739.44.859.858l.545 1.909a1.279 1.279 0 0 0 1.24.932c.498 0 .946-.282 1.161-.739l3.729-7.925a1.275 1.275 0 0 0-.255-1.458 1.275 1.275 0 0 0-1.457-.252Zm-3.132 8.484-.389-1.362a2.734 2.734 0 0 0-1.89-1.89l-1.36-.388 6.874-3.235-3.235 6.875ZM17.625 2.25H6.375c-2.66 0-4.125 1.465-4.125 4.125v11.25c0 2.66 1.465 4.125 4.125 4.125h11.25c2.66 0 4.125-1.465 4.125-4.125V6.375c0-2.66-1.465-4.125-4.125-4.125Zm2.625 15.375c0 1.84-.785 2.625-2.625 2.625H6.375c-1.84 0-2.625-.785-2.625-2.625V6.375c0-1.84.785-2.625 2.625-2.625h11.25c1.84 0 2.625.785 2.625 2.625v11.25Z"/></svg>
